public/img/usage/eldorado.svg

<svg fill="none" height="25" viewBox="0 0 220 25" width="220" xmlns="http://www.w3.org/2000/svg" xmlns:xlink="http://www.w3.org/1999/xlink"><clipPath id="a"><path d="m0 0h220v24.3h-220z"/></clipPath><g clip-path="url(#a)" opacity=".7"><path d="m22.9 4.6c.5-2.7-.3-4.5-3.5-4.5h-9.9l-.9 4.6h8.4c.5 0 .7.3.6.9l-1.1 5.6h-5.2l.8-3.9-12.1 5.8h9l-.8 3.9 7.9-3.8-1 5.5c-.1.6-.4.8-1 .8h-8.4l-.9 4.7h9.9c3.2 0 4.7-1.9 5.2-4.5zm16.3 19.6 4.7-24.2h-11c-3.2 0-4.8 1.9-5.3 4.5l-5.6 19.7h5.4l5.1-18.6c.1-.6.4-.9.9-.9h4.4l-3.8 19.5zm17.5-11.2-1.1 5.9c-.1.6-.5.9-1 .9h-4.4l1.5-7.7h4.4c.6.1.8.3.6.9zm5.3-.6c.5-2.7-.3-4.6-3.5-4.6h-5.9l1.5-7.7h-5.2l-4.7 24.2h11.1c3.3 0 4.7-1.9 5.3-4.5zm17.1-7.7-2.9 14.8h-5.5l3.8-13.9c.1-.6.4-.9.9-.9zm2.3 14.8 3.8-19.5h-10.4c-3.2 0-4.8 1.9-5.3 4.5l-4.2 14.9h-2.2l-1 4.7h19.9l.9-4.7h-1.5zm18-13.9-2.5 13.1c-.2.6-.5.8-1 .8h-3.7c-.5 0-.7-.2-.6-.8l2.6-13.1c.1-.6.3-.9.9-.9h3.7c.5 0 .7.3.6.9zm5.3-1c.5-2.7-.3-4.5-3.5-4.5h-6.6c-3.2 0-4.8 1.9-5.4 4.5l-2.9 15.1c-.5 2.7.3 4.5 3.5 4.5h6.7c3.3 0 4.8-1.9 5.3-4.5zm14.7 1-1.2 6c-.1.7-.4.9-1 .9h-4.4l1.6-7.8h4.4c.5 0 .7.3.6.9zm5.3-1c.6-2.7-.3-4.5-3.5-4.5h-11l-4.7 24.2h5l1.4-7h6c3.2 0 4.5-1.9 5.1-4.6zm10.6 1.8-.8 9.4h-3.6l4.1-9.4zm4.3 17.8.6-24.2h-7l-11.6 24.2h5.6l1.9-4.5h5l-.4 4.5zm19.1-19.5-2.9 14.8h-5.5l3.8-13.9c.1-.6.4-.9.9-.9zm2.3 14.8 3.8-19.5h-10.4c-3.2 0-4.8 1.9-5.3 4.5l-4.2 14.9h-2.2l-1 4.7h19.9l.9-4.7h-1.5zm18.6-13.9-2.6 13.1c-.1.6-.4.8-.9.8h-3.7c-.5 0-.7-.2-.6-.8l2.5-13.1c.2-.6.5-.9.9-.9h3.7c.5 0 .8.3.7.9zm1.7-5.5h-6.7c-3.2 0-4.7 1.9-5.2 4.5l-2.9 15.1c-.5 2.7.3 4.5 3.5 4.5h6.7c3.2 0 4.7-1.9 5.2-4.5l3-15.1c.4-2.7-.4-4.5-3.6-4.5zm8.6 18.6-1.1 5.6h-5.1l1.1-5.6zm27.5 2.1c-.4 2-1.5 3.4-3.9 3.4h-4.3c-2.4 0-3-1.4-2.6-3.4l2.6-13.5h3.7l-2.5 12.9c-.1.3 0 .5.2.5h2.7c.3 0 .4-.1.5-.5l2.5-12.9h3.7zm-15.8-9.6-.9 4.2c-.1.5-.3.6-.7.6h-3l1.1-5.4h3.1c.3 0 .5.2.4.6zm1.2-3.9h-7.7l-3.3 16.9h3.5l1-4.9h1.7l.8 4.9h3.9l-1-5c1.4-.4 2.1-1.6 2.4-3.1l1.1-5.6c.5-1.9-.1-3.2-2.4-3.2z" fill="#ce1037"/></g></svg>

<svg width="220" height="25" viewBox="0 0 220 25" fill="none" xmlns="http://www.w3.org/2000/svg">
<g style="mix-blend-mode:luminosity" opacity="0.7" clip-path="url(#clip0_242_4789)">
<path d="M22.9 4.6C23.4 1.9 22.6 0.1 19.4 0.1H9.5L8.6 4.7H17C17.5 4.7 17.7 5 17.6 5.6L16.5 11.2H11.3L12.1 7.3L0 13.1H9L8.2 17L16.1 13.2L15.1 18.7C15 19.3 14.7 19.5 14.1 19.5H5.7L4.8 24.2H14.7C17.9 24.2 19.4 22.3 19.9 19.7L22.9 4.6ZM39.2 24.2L43.9 0H32.9C29.7 0 28.1 1.9 27.6 4.5L22 24.2H27.4L32.5 5.6C32.6 5 32.9 4.7 33.4 4.7H37.8L34 24.2H39.2ZM56.7 13L55.6 18.9C55.5 19.5 55.1 19.8 54.6 19.8H50.2L51.7 12.1H56.1C56.7 12.2 56.9 12.4 56.7 13ZM62 12.4C62.5 9.7 61.7 7.8 58.5 7.8H52.6L54.1 0.1H48.9L44.2 24.3H55.3C58.6 24.3 60 22.4 60.6 19.8L62 12.4ZM79.1 4.7L76.2 19.5H70.7L74.5 5.6C74.6 5 74.9 4.7 75.4 4.7H79.1ZM81.4 19.5L85.2 0H74.8C71.6 0 70 1.9 69.5 4.5L65.3 19.4H63.1L62.1 24.1H82L82.9 19.4H81.4V19.5ZM99.4 5.6L96.9 18.7C96.7 19.3 96.4 19.5 95.9 19.5H92.2C91.7 19.5 91.5 19.3 91.6 18.7L94.2 5.6C94.3 5 94.5 4.7 95.1 4.7H98.8C99.3 4.7 99.5 5 99.4 5.6ZM104.7 4.6C105.2 1.9 104.4 0.1 101.2 0.1H94.6C91.4 0.1 89.8 2 89.2 4.6L86.3 19.7C85.8 22.4 86.6 24.2 89.8 24.2H96.5C99.8 24.2 101.3 22.3 101.8 19.7L104.7 4.6ZM119.4 5.6L118.2 11.6C118.1 12.3 117.8 12.5 117.2 12.5H112.8L114.4 4.7H118.8C119.3 4.7 119.5 5 119.4 5.6ZM124.7 4.6C125.3 1.9 124.4 0.1 121.2 0.1H110.2L105.5 24.3H110.5L111.9 17.3H117.9C121.1 17.3 122.4 15.4 123 12.7L124.7 4.6ZM135.3 6.4L134.5 15.8H130.9L135 6.4H135.3ZM139.6 24.2L140.2 0H133.2L121.6 24.2H127.2L129.1 19.7H134.1L133.7 24.2H139.6ZM158.7 4.7L155.8 19.5H150.3L154.1 5.6C154.2 5 154.5 4.7 155 4.7H158.7ZM161 19.5L164.8 0H154.4C151.2 0 149.6 1.9 149.1 4.5L144.9 19.4H142.7L141.7 24.1H161.6L162.5 19.4H161V19.5ZM179.6 5.6L177 18.7C176.9 19.3 176.6 19.5 176.1 19.5H172.4C171.9 19.5 171.7 19.3 171.8 18.7L174.3 5.6C174.5 5 174.8 4.7 175.2 4.7H178.9C179.4 4.7 179.7 5 179.6 5.6ZM181.3 0.1H174.6C171.4 0.1 169.9 2 169.4 4.6L166.5 19.7C166 22.4 166.8 24.2 170 24.2H176.7C179.9 24.2 181.4 22.3 181.9 19.7L184.9 4.6C185.3 1.9 184.5 0.1 181.3 0.1ZM189.9 18.7L188.8 24.3H183.7L184.8 18.7H189.9ZM217.4 20.8C217 22.8 215.9 24.2 213.5 24.2H209.2C206.8 24.2 206.2 22.8 206.6 20.8L209.2 7.3H212.9L210.4 20.2C210.3 20.5 210.4 20.7 210.6 20.7H213.3C213.6 20.7 213.7 20.6 213.8 20.2L216.3 7.3H220L217.4 20.8ZM201.6 11.2L200.7 15.4C200.6 15.9 200.4 16 200 16H197L198.1 10.6H201.2C201.5 10.6 201.7 10.8 201.6 11.2ZM202.8 7.3H195.1L191.8 24.2H195.3L196.3 19.3H198L198.8 24.2H202.7L201.7 19.2C203.1 18.8 203.8 17.6 204.1 16.1L205.2 10.5C205.7 8.6 205.1 7.3 202.8 7.3Z" fill="#CE1037"/>
</g>
<defs>
<clipPath id="clip0_242_4789">
<rect width="220" height="24.3" fill="white"/>
</clipPath>
</defs>
</svg>
